X:1
T:The Sailor's Grave
M:3/4
L:1/8
K:C
 GEC| E3 EC E| D3 G,/2 G,/2 DD| D3 EG B,| C3 G,C D| E3 CC D| G3 G/2G/2 AF|\
 D3 EF B,| C3||

